!! 00000] TT[00
!! NN
!!!OTL: A nar gu li ba la
!!!ARE: Xinjiang, Kashi (SÅd)
!! Ethnic Group: Weiwuer
!! IV, 408
!!!SCT: C0423
!!!YEM: Copyright 1995, estate of Helmut Schaffrath.
**kern
*ICvox
*Ivox
*M2/4
*k[]
*C:
{8r
16A
16d
=1
8.d
16d
8dd
8dd
=2
8dd
16cc
16dd
8cc
16b
16cc
=3
8.dd
16cc
8ee
8dd
=4
4dd}
{8g
8g
=5
16a
16b
8g
8.a
16b
=6
16cc
16dd
16b
16cc
8.a}
{16a
=7
8cc
8b
8cc
8ee
=8
8dd
16b
16dd
8cc
8a
=9
[2a
=10
2a_
=11
2a_
=12
8a]
4r}
{16A
16d
=13
8d
16d
16d
8d
16f#
16g
=14
8.b
16dd
8cc
8b
=15
8b
8a
8a
8f#
=16
8g
8f#
8.a
16g
=17
4g}
{8c
8c
=18
16d
16e
8c
8.d
16e
=19
16f
16g
16e
16f
8.d}
{16d
=20
8f
8e
8f
8a
=21
8g
8e
8.f
16d
=22
[2d
=23
2d_
=24
2d_
=25
8d]
4r}
{16A
16d
=26
8d
16d
16d
8d
16f#
16g
=27
8.b
16dd
8cc
8b
=28
8b
8a
8a
8f#
=29
8g
8f#
8.a
16g
=30
4g}
{8c
8c
=31
16d
16e
8c
8.d
16e
=32
16f
16g
16e
16f
8.d}
{16d
=33
8f
8e
8f
8a
=34
8g
8e
8.f
16d
=35
[2d
=36
2d_
=37
2d_
=38
8d]
4.r}
==
!! Fuer diese Nationalitaet typisch. Die Melodie ist aehnlich
!!    denen aus Mittelasien.
!!    Vereinzelt Verzierungen, Glissandi. Die +1 in Takt 2 wird etwas hoeher
!!    gesungen. Vorspiel weggelassen (ebenfalls auftaktig).
!!!AGN: Laodong gequ. Biaoda aiqing
!!!ONB: ESAC (Essen Associative Code) Database: CHINA
!!!AMT: simple duple
!!!AIN: vox
!!!EED: Helmut Schaffrath
!!!EEV: 1.0
*-
!!!ONB: Tied note syntax fixed by Craig Sapp, 2004/05/03/
